packages/kaspersky-hexa-ui-icons/src/iconsSVGs/16/ConfigureGroups.svg

<svg width="16" height="16" viewBox="0 0 16 16" fill="none" xmlns="http://www.w3.org/2000/svg">
<path fill-rule="evenodd" clip-rule="evenodd" d="M5.23549 1.69986L4.97831 1.44698C4.71944 1.19244 4.37093 1.0498 4.00788 1.0498H2.68146C1.96208 1.0498 1.37891 1.63298 1.37891 2.35236V6.13008C1.37891 6.84946 1.96208 7.43263 2.68146 7.43263H7.24592C7.9653 7.43263 8.54847 6.84946 8.54847 6.13008V3.00241C8.54847 2.28303 7.9653 1.69986 7.24592 1.69986H5.23549ZM4.94899 2.99986C4.79162 2.99986 4.64054 2.93803 4.52833 2.82769L4.06686 2.37394C4.05113 2.35847 4.02995 2.3498 4.00788 2.3498H2.68146L2.67965 2.35055L2.67892 2.35136L2.67891 6.13008L2.67965 6.13188L2.68046 6.13261L7.24592 6.13263L7.24772 6.13188L7.24845 6.13108L7.24847 3.00241L7.24772 3.0006L7.24692 2.99988L4.94899 2.99986Z" fill="black"/>
<path fill-rule="evenodd" clip-rule="evenodd" d="M11.7012 9.21695L11.444 8.96407C11.1851 8.70953 10.8366 8.56689 10.4735 8.56689H9.14713C8.42775 8.56689 7.84457 9.15007 7.84457 9.86945V13.6472C7.84457 14.3665 8.42775 14.9497 9.14713 14.9497H13.7116C14.431 14.9497 15.0141 14.3665 15.0141 13.6472V10.5195C15.0141 9.80012 14.431 9.21695 13.7116 9.21695H11.7012ZM11.4147 10.5169C11.2573 10.5169 11.1062 10.4551 10.994 10.3448L10.5325 9.89103C10.5168 9.87556 10.4956 9.86689 10.4735 9.86689H9.14713L9.14532 9.86764L9.14459 9.86845L9.14457 13.6472L9.14532 13.649L9.14613 13.6497L13.7116 13.6497L13.7134 13.649L13.7141 13.6482L13.7141 10.5195L13.7134 10.5177L13.7126 10.517L11.4147 10.5169Z" fill="black"/>
<path d="M3.66072 8.81406C3.66072 8.45508 3.3697 8.16406 3.01072 8.16406C2.65173 8.16406 2.36072 8.45508 2.36072 8.81406V12.137C2.36072 12.496 2.65173 12.787 3.01072 12.787H6.4948C6.85379 12.787 7.1448 12.496 7.1448 12.137C7.1448 11.7781 6.85379 11.487 6.4948 11.487H3.66072V8.81406Z" fill="black"/>
</svg>

<svg xmlns="http://www.w3.org/2000/svg" width="16" height="16" fill="none" viewBox="0 0 16 16"><path fill="#000" fill-rule="evenodd" d="m5.2355 1.6999-.2572-.253a1.384 1.384 0 0 0-.9704-.3971H2.6815c-.7194 0-1.3026.5832-1.3026 1.3026V6.13c0 .7194.5832 1.3025 1.3026 1.3025h4.5644c.7194 0 1.3026-.5831 1.3026-1.3025V3.0024c0-.7194-.5832-1.3025-1.3026-1.3025zm-.2865 1.3a.6.6 0 0 1-.4207-.1722l-.4614-.4538a.084.084 0 0 0-.059-.0241H2.6815l-.0019.0007-.0007.0009V6.13l.0008.0018.0008.0007h4.5654l.0018-.0007.0008-.0008V3.0024l-.0008-.0018-.0008-.0007zM3.6607 8.814a.65.65 0 0 0-1.3 0v3.3229c0 .359.291.65.65.65h3.4841a.65.65 0 1 0 0-1.3h-2.834zm7.7833.15.2572.2528h2.0104c.7194 0 1.3025.5832 1.3025 1.3026v3.1277c0 .7193-.5831 1.3025-1.3025 1.3025H9.1471c-.7194 0-1.3025-.5832-1.3025-1.3025V9.8694c0-.7193.5831-1.3025 1.3025-1.3025h1.3264c.3631 0 .7116.1426.9705.3972m-.45 1.3807a.6.6 0 0 0 .4207.1721l2.2979.0001.0008.0007.0007.0018v3.1287l-.0007.0008-.0018.0007H9.1461l-.0008-.0007-.0007-.0018V9.8684l.0007-.0008.0018-.0007h1.3264a.084.084 0 0 1 .059.0241z"/></svg>
